packages/ckeditor5-icons/theme/icons/context.svg

<svg viewBox="0 0 20 20" xmlns="http://www.w3.org/2000/svg">
<path d="M14.0454 12.4669C14.3113 12.5408 14.4673 12.8156 14.3937 13.0815C14.3197 13.3472 14.0441 13.5033 13.7782 13.4296L8.96126 12.0928C8.69536 12.019 8.53971 11.7432 8.61317 11.4773C8.68717 11.2117 8.96193 11.0555 9.22772 11.129L14.0454 12.4669Z"/>
<path d="M14.8479 9.57526C15.1138 9.64917 15.2697 9.92479 15.1959 10.1908C15.122 10.4566 14.8464 10.6125 14.5805 10.5388L9.76254 9.20181C9.49679 9.12781 9.34175 8.85244 9.41539 8.58657C9.48926 8.32073 9.76404 8.16468 10.0299 8.23822L14.8479 9.57526Z"/>
<path d="M15.651 6.68477C15.9167 6.75888 16.0728 7.03443 15.9991 7.30026C15.9253 7.56601 15.6494 7.72172 15.3836 7.64835L10.5648 6.31106C10.299 6.23707 10.144 5.96169 10.2176 5.69582C10.2915 5.42999 10.5663 5.27392 10.8322 5.34747L15.651 6.68477Z"/>
<path fill-rule="evenodd" clip-rule="evenodd" d="M15.6105 1.35281C15.8424 1.39612 16.0199 1.5975 16.0242 1.84158L16.0459 3.15093L9.84735 1.43886L9.84144 1.43823L19.6275 4.1408C19.8977 4.21541 20.0567 4.49399 19.9818 4.76309L15.912 19.381L15.8745 19.4759C15.767 19.6851 15.5236 19.7977 15.2874 19.7326L7.769 17.6563L4.61311 17.7109C4.36829 17.7144 4.16078 17.545 4.10962 17.3157L4.09731 17.214L3.83999 2.04698C3.83548 1.76811 4.0591 1.5388 4.33913 1.53384L7.1428 1.4849L11.0124 0.27542L11.1127 0.253597C11.3476 0.229526 11.5757 0.373195 11.6493 0.606211L11.9 1.40448L15.5074 1.34447L15.6105 1.35281ZM9.65394 2.94289L9.39842 2.94698L5.88081 15.5786L14.7322 18.0228L18.2691 5.32154L9.65394 2.94289ZM5.38049 3.03291L5.51938 11.2826L7.82764 2.99044L5.38049 3.03291Z"/>
<path d="M3.87395 4.09753L1.78089 4.7521L4.0047 11.8068L4.09593 17.1569L0.0232063 4.24203C-0.0603675 3.97591 0.0889546 3.69252 0.356037 3.60875L3.84758 2.5163L3.87395 4.09753Z"/>
</svg>

<svg xmlns="http://www.w3.org/2000/svg" viewBox="0 0 20 20"><path d="M14.045 12.467a.5.5 0 1 1-.267.963l-4.817-1.337a.5.5 0 0 1 .267-.964zm.803-2.892a.5.5 0 0 1-.268.964L9.764 9.202a.5.5 0 0 1 .267-.964zm.803-2.89a.5.5 0 0 1-.267.963l-4.82-1.337a.5.5 0 0 1 .268-.964z"/><path fill-rule="evenodd" d="M15.61 1.353c.232.043.41.244.414.489l.022 1.309-6.199-1.712h-.006l9.787 2.702c.27.074.429.353.354.622l-4.07 14.618-.038.095a.51.51 0 0 1-.587.257L7.77 17.656l-3.156.055a.51.51 0 0 1-.503-.395l-.013-.102L3.84 2.047a.507.507 0 0 1 .5-.513l2.803-.05 3.87-1.209.1-.021a.51.51 0 0 1 .536.352l.251.798 3.607-.06zm-5.956 1.59-.256.004-3.517 12.632 8.851 2.444L18.27 5.322zm-4.274.09.14 8.25L7.827 2.99z" clip-rule="evenodd"/><path d="m3.874 4.098-2.093.654 2.224 7.055.09 5.35L.024 4.242a.506.506 0 0 1 .333-.633l3.492-1.093z"/></svg>
